img/icons/media/image-alt.svg

<svg xmlns="http://www.w3.org/2000/svg" viewBox="0 0 48 38"><g data-name="Layer 2"><g data-name="Photo / Audio / Video"><path data-name="Image - Alt" d="M0 0v38h48V0zm18.05 18a15.53 15.53 0 003.66 8h-1.17c-5.08 0-9-3.37-9.49-8zM30 18h7c-.5 4.63-4.41 8-9.49 8h-1.22A15.53 15.53 0 0030 18zm-6 7.58c-1.29-1.39-4-4.77-4-8.59s2.71-7.19 4-8.57c1.29 1.38 4 4.75 4 8.57s-2.71 7.2-4 8.59zM46 36H25v-8h2.46C34 28 39 23.27 39 17v-1h-9c-.52-5.42-5.08-9.56-5.28-9.75L24 5.66l-.67.59c-.2.19-4.76 4.33-5.28 9.75H9v1c0 6.27 5 11 11.54 11H23v8H2V2h44z" fill="#231f20"/></g></g></svg>

<svg xmlns="http://www.w3.org/2000/svg" viewBox="0 0 48 38"><defs><style>.cls-1{fill:#231f20;}</style></defs><title>Image - Alt</title><g id="Layer_2" data-name="Layer 2"><g id="Icons"><g id="Photo_Audio_Video" data-name="Photo / Audio / Video"><path id="Image_-_Alt" data-name="Image - Alt" class="cls-1" d="M0,0V38H48V0ZM18.05,18a15.53,15.53,0,0,0,3.66,8H20.54c-5.08,0-9-3.37-9.49-8ZM30,18h7c-.5,4.63-4.41,8-9.49,8H26.29A15.53,15.53,0,0,0,30,18ZM24,25.58c-1.29-1.39-4-4.77-4-8.59s2.71-7.19,4-8.57c1.29,1.38,4,4.75,4,8.57S25.29,24.19,24,25.58ZM46,36H25V28h2.46C34,28,39,23.27,39,17V16H30c-.52-5.42-5.08-9.56-5.28-9.75L24,5.66l-.67.59c-.2.19-4.76,4.33-5.28,9.75H9v1c0,6.27,5,11,11.54,11H23v8H2V2H46Z"/></g></g></g></svg>
